**kern	**silbe	**harmony	**phrase	**leadinstrument	**rhyme	**timestamp	**harte
*ICvox	*	*M4/4	*	*	*	*	*M4/4
*VRlead	*	*	*	*	*	*	*
*Hstimme	*	*	*	*	*	*	*
*D:	*	*D:	*	*	*	*	*D:
*M4/4	*	*	*	*	*	*	*
*clefG2	*	*	*	*	*	*	*
r;	.	1r;	.	r	.	0	N.C.
=1	=1	=1	=1	=1	=1	=1	=1
*>Letter>A	*>Letter>A	*>Letter>A	*>Letter>A	*>Letter>A	*>Letter>A	*>Letter>A	*>Letter>A
*>Label>Intro	*>Label>Intro	*>Label>Intro	*>Label>Intro	*>Label>Intro	*>Label>Intro	*>Label>Intro	*>Label>Intro
1r	.	1AM	newline	guitar	.	0.325	A:maj
=2	=2	=2	=2	=2	=2	=2	=2
1r	.	1GM	.	guitar	.	2.33	G:maj/2
=3	=3	=3	=3	=3	=3	=3	=3
1r	.	1GM	.	guitar	.	4.336	G:maj/2
=4	=4	=4	=4	=4	=4	=4	=4
1r	.	1AM	.	guitar	.	6.341	A:maj
=5	=5	=5	=5	=5	=5	=5	=5
1r	.	1AM	newline	guitar	.	8.346	A:maj
=6	=6	=6	=6	=6	=6	=6	=6
1r	.	1GM	.	guitar	.	10.317	G:maj/2
=7	=7	=7	=7	=7	=7	=7	=7
1r	.	1GM	.	guitar	.	12.287	G:maj/2
=8	=8	=8	=8	=8	=8	=8	=8
2r	.	1AM	.	guitar	.	14.258	A:maj
4r	.	.	.	.	.	.	.
8r	.	.	.	.	.	.	.
8d	The	.	.	.	.	.	.
=9	=9	=9	=9	=9	=9	=9	=9
*>Letter>B	*>Letter>B	*>Letter>B	*>Letter>B	*>Letter>B	*>Letter>B	*>Letter>B	*>Letter>B
*>Label>Verse	*>Label>Verse	*>Label>Verse	*>Label>Verse	*>Label>Verse	*>Label>Verse	*>Label>Verse	*>Label>Verse
4f#	rain	1DM	newline	voice	.	16.229	D:maj
8e	is	.	.	.	.	.	.
[8d	fa-	.	.	.	.	.	.
8d]	_	.	.	.	.	.	.
16e	-lling	.	.	.	.	.	.
16f#	_	.	.	.	.	.	.
8r	.	.	.	.	.	.	.
[8e	through	.	.	.	.	.	.
=10	=10	=10	=10	=10	=10	=10	=10
8e]	_	1Am	.	voice	.	18.186	A:min
4d	the	.	.	.	.	.	.
4c	mist	.	.	.	A	.	.
4c	of	.	.	.	.	.	.
[8c	sor-	.	.	.	.	.	.
=11	=11	=11	=11	=11	=11	=11	=11
8c]	_	2CM	.	voice	.	20.143	C:maj
8c	-row	.	.	.	.	.	.
4r	.	.	.	.	.	.	.
4c	that	2GM	.	voice	.	21.122	G:maj
8B	sur-	.	.	.	.	.	.
[8d	-round-	.	.	.	(B	.	.
=12	=12	=12	=12	=12	=12	=12	=12
8d]	_	1DM	.	voice	.	22.1	D:maj
4d	-ed	.	.	.	.	.	.
8d	me	.	.	.	C)	.	.
4.r	.	.	.	.	.	.	.
8d	The	.	.	.	.	.	.
=13	=13	=13	=13	=13	=13	=13	=13
4f#	sun	1DM	newline	voice	.	24.057	D:maj
8e	could	.	.	.	.	.	.
[8d	ne-	.	.	.	.	.	.
8d]	_	.	.	.	.	.	.
16e	-ver	.	.	.	.	.	.
16f#	_	.	.	.	.	.	.
8r	.	.	.	.	.	.	.
[8e	thaw	.	.	.	.	.	.
=14	=14	=14	=14	=14	=14	=14	=14
8e]	_	1Am	.	voice	.	26.025	A:min
4d	a-	.	.	.	.	.	.
4c	-way	.	.	.	.	.	.
8r	.	.	.	.	.	.	.
8A	the	.	.	.	.	.	.
[8c	bliss	.	.	.	A	.	.
=15	=15	=15	=15	=15	=15	=15	=15
8c]	_	2CM	.	voice	.	27.993	C:maj
4c	that	.	.	.	.	.	.
16c	lays	.	.	.	.	.	.
[16d	_	.	.	.	.	.	.
4d]	_	2GM	.	voice	.	28.977	G:maj
8d	a-	.	.	.	.	.	.
8e	-round	.	.	.	(B	.	.
=16	=16	=16	=16	=16	=16	=16	=16
4d	_	1DM	.	voice	.	29.961	D:maj
8d	me	.	.	.	C)	.	.
8r	.	.	.	.	.	.	.
8r	.	.	.	.	.	.	.
8d	Let	.	.	.	.	.	.
8e	it	.	.	.	.	.	.
[8f#	rain	.	.	.	.	.	.
=17	=17	=17	=17	=17	=17	=17	=17
*>Letter>C	*>Letter>C	*>Letter>C	*>Letter>C	*>Letter>C	*>Letter>C	*>Letter>C	*>Letter>C
*>Label>Chorus	*>Label>Chorus	*>Label>Chorus	*>Label>Chorus	*>Label>Chorus	*>Label>Chorus	*>Label>Chorus	*>Label>Chorus
8f#]	_	2DM	newline	voice	.	31.929	D:maj
8r	.	.	.	.	.	.	.
4r	.	.	.	.	.	.	.
8r	.	2Am	.	voice	.	32.903	A:min
8d	Let	.	.	.	.	.	.
8e	it	.	.	.	.	.	.
16f#	rain	.	.	.	.	.	.
16e	_	.	.	.	.	.	.
=18	=18	=18	=18	=18	=18	=18	=18
8d	_	2DM	.	voice	.	33.877	D:maj
8r	.	.	.	.	.	.	.
4r	.	.	.	.	.	.	.
8r	.	2Am	.	voice	.	34.85	A:min
8d	Let	.	.	.	.	.	.
8d	your	.	.	.	.	.	.
[8e	love	.	.	.	.	.	.
=19	=19	=19	=19	=19	=19	=19	=19
4e]	_	2CM	.	voice	.	35.824	C:maj
4e	rain	.	.	.	.	.	.
4d	down	2GM	.	voice	.	36.798	G:maj
8B	on	.	.	.	.	.	.
[8A	me	.	.	.	.	.	.
=20	=20	=20	=20	=20	=20	=20	=20
8A]	_	1DM	.	voice	.	37.771	D:maj
8r	.	.	.	.	.	.	.
4r	.	.	.	.	.	.	.
8r	.	.	.	.	.	.	.
8d	Let	.	.	.	.	.	.
8e	it	.	.	.	.	.	.
[8f#	rain	.	.	.	.	.	.
=21	=21	=21	=21	=21	=21	=21	=21
8f#]	_	2DM	newline	voice	.	39.719	D:maj
8r	.	.	.	.	.	.	.
4r	.	.	.	.	.	.	.
8r	.	2Am	.	voice	.	40.696	A:min
8d	Let	.	.	.	.	.	.
8e	it	.	.	.	.	.	.
16f#	rain	.	.	.	.	.	.
16e	_	.	.	.	.	.	.
=22	=22	=22	=22	=22	=22	=22	=22
4d	_	2DM	.	voice	.	41.674	D:maj
4r	.	.	.	.	.	.	.
8r	.	2Am	.	voice	.	42.651	A:min
8d	Let	.	.	.	.	.	.
8d	it	.	.	.	.	.	.
[8e	rain	.	.	.	.	.	.
=23	=23	=23	=23	=23	=23	=23	=23
4.e]	_	2CM	.	voice	.	43.629	C:maj
8d	_	.	.	.	.	.	.
4.d	rain	2GM	.	voice	.	44.606	G:maj
[8d	rain	.	.	.	.	.	.
=24	=24	=24	=24	=24	=24	=24	=24
8d]	_	1DM	.	voice	.	45.584	D:maj
8r	.	.	.	.	.	.	.
4r	.	.	.	.	.	.	.
4.r	.	.	.	.	.	.	.
8d	Her	.	.	.	.	.	.
=25	=25	=25	=25	=25	=25	=25	=25
*>Letter>B	*>Letter>B	*>Letter>B	*>Letter>B	*>Letter>B	*>Letter>B	*>Letter>B	*>Letter>B
*>Label>Verse	*>Label>Verse	*>Label>Verse	*>Label>Verse	*>Label>Verse	*>Label>Verse	*>Label>Verse	*>Label>Verse
4f#	life	1DM	newline	voice	.	47.539	D:maj
8e	was	.	.	.	.	.	.
[8d	like	.	.	.	.	.	.
8d]	_	.	.	.	.	.	.
16e	a	.	.	.	.	.	.
16f#	_	.	.	.	.	.	.
8r	.	.	.	.	.	.	.
[8e	de-	.	.	.	.	.	.
=26	=26	=26	=26	=26	=26	=26	=26
8e]	_	1Am	.	voice	.	49.504	A:min
4d	-sert	.	.	.	.	.	.
4c	flo-	.	.	.	.	.	.
4A	-wer	.	.	.	.	.	.
8r	.	.	.	.	.	.	.
=27	=27	=27	=27	=27	=27	=27	=27
4c	burn-	2CM	.	voice	.	51.469	C:maj
8c	-ing	.	.	.	.	.	.
[8d	in	.	.	.	.	.	.
8d]	_	2GM	.	voice	.	52.452	G:maj
4d	the	.	.	.	.	.	.
[8d	sun	.	.	.	D	.	.
=28	=28	=28	=28	=28	=28	=28	=28
8d]	_	1DM	.	voice	.	53.435	D:maj
8r	.	.	.	.	.	.	.
4r	.	.	.	.	.	.	.
4r	.	.	.	.	.	.	.
8r	.	.	.	.	.	.	.
8d	Un-	.	.	.	.	.	.
=29	=29	=29	=29	=29	=29	=29	=29
8f#	-til	1DM	newline	voice	.	55.4	D:maj
4e	I	.	.	.	.	.	.
[8d	found	.	.	.	.	.	.
8d]	_	.	.	.	.	.	.
16e	the	.	.	.	.	.	.
[16f#	_	.	.	.	.	.	.
8f#]	_	.	.	.	.	.	.
[8e	way	.	.	.	.	.	.
=30	=30	=30	=30	=30	=30	=30	=30
8e]	_	1Am	.	voice	.	57.35	A:min
4d	to	.	.	.	.	.	.
4c	love	.	.	.	.	.	.
8r	.	.	.	.	.	.	.
8r	.	.	.	.	.	.	.
8A	it's	.	.	.	.	.	.
=31	=31	=31	=31	=31	=31	=31	=31
4c	har-	2CM	.	voice	.	59.3	C:maj
8c	-der	.	.	.	.	.	.
[8d	said	.	.	.	.	.	.
8d]	_	2GM	.	voice	.	60.274	G:maj
16d	than	.	.	.	.	.	.
[16e	_	.	.	.	.	.	.
8e]	_	.	.	.	.	.	.
[8d	done	.	.	.	D	.	.
=32	=32	=32	=32	=32	=32	=32	=32
8d]	_	1DM	.	voice	.	61.249	D:maj
8r	.	.	.	.	.	.	.
4r	.	.	.	.	.	.	.
8r	.	.	.	.	.	.	.
8d	Let	.	.	.	.	.	.
8e	it	.	.	.	.	.	.
[8f#	rain	.	.	.	.	.	.
=33	=33	=33	=33	=33	=33	=33	=33
*>Letter>C	*>Letter>C	*>Letter>C	*>Letter>C	*>Letter>C	*>Letter>C	*>Letter>C	*>Letter>C
*>Label>Chorus	*>Label>Chorus	*>Label>Chorus	*>Label>Chorus	*>Label>Chorus	*>Label>Chorus	*>Label>Chorus	*>Label>Chorus
8f#]	_	2DM	newline	voice	.	63.199	D:maj
8r	.	.	.	.	.	.	.
4r	.	.	.	.	.	.	.
8r	.	2Am	.	voice	.	64.173	A:min
8d	Let	.	.	.	.	.	.
8e	it	.	.	.	.	.	.
16f#	rain	.	.	.	.	.	.
16e	_	.	.	.	.	.	.
=34	=34	=34	=34	=34	=34	=34	=34
4.d	_	2DM	.	voice	.	65.146	D:maj
8r	.	.	.	.	.	.	.
8r	.	2Am	.	voice	.	66.12	A:min
8d	Let	.	.	.	.	.	.
8d	your	.	.	.	.	.	.
[8e	love	.	.	.	.	.	.
=35	=35	=35	=35	=35	=35	=35	=35
4e]	_	2CM	.	voice	.	67.093	C:maj
4e	rain	.	.	.	.	.	.
4d	down	2GM	.	voice	.	68.067	G:maj
8B	on	.	.	.	.	.	.
[8A	me	.	.	.	.	.	.
=36	=36	=36	=36	=36	=36	=36	=36
8A]	_	1DM	.	voice	.	69.04	D:maj
8r	.	.	.	.	.	.	.
4r	.	.	.	.	.	.	.
8r	.	.	.	.	.	.	.
8d	Let	.	.	.	.	.	.
8e	it	.	.	.	.	.	.
[8f#	rain	.	.	.	.	.	.
=37	=37	=37	=37	=37	=37	=37	=37
8f#]	_	2DM	newline	voice	.	70.987	D:maj
8r	.	.	.	.	.	.	.
4r	.	.	.	.	.	.	.
8r	.	2Am	.	voice	.	71.989	A:min
8d	Let	.	.	.	.	.	.
8e	it	.	.	.	.	.	.
16f#	rain	.	.	.	.	.	.
16e	_	.	.	.	.	.	.
=38	=38	=38	=38	=38	=38	=38	=38
4d	_	2DM	.	voice	.	72.992	D:maj
4r	.	.	.	.	.	.	.
8r	.	2Am	.	voice	.	73.994	A:min
8d	Let	.	.	.	.	.	.
8d	it	.	.	.	.	.	.
[8e	rain	.	.	.	.	.	.
=39	=39	=39	=39	=39	=39	=39	=39
2e]	_	2CM	.	voice	.	74.996	C:maj
2d	rain	2GM	.	voice	.	75.998	G:maj
=40	=40	=40	=40	=40	=40	=40	=40
*>Letter>A	*>Letter>A	*>Letter>A	*>Letter>A	*>Letter>A	*>Letter>A	*>Letter>A	*>Letter>A
*>Label>Interlude	*>Label>Interlude	*>Label>Interlude	*>Label>Interlude	*>Label>Interlude	*>Label>Interlude	*>Label>Interlude	*>Label>Interlude
2c#	rain	1AM	newline	guitar	.	77.001	A:maj
2r	.	.	.	.	.	.	.
=41	=41	=41	=41	=41	=41	=41	=41
1r	.	1GM	.	guitar	.	79.015	G:maj/2
=42	=42	=42	=42	=42	=42	=42	=42
1r	.	1GM	.	guitar	.	81.029	G:maj/2
=43	=43	=43	=43	=43	=43	=43	=43
1r	.	1AM	.	guitar	.	83.044	A:maj
=44	=44	=44	=44	=44	=44	=44	=44
1r	.	1AM	newline	guitar	.	85.058	A:maj
=45	=45	=45	=45	=45	=45	=45	=45
1r	.	1GM	.	guitar	.	87.061	G:maj/2
=46	=46	=46	=46	=46	=46	=46	=46
1r	.	1GM	.	guitar	.	89.064	G:maj/2
=47	=47	=47	=47	=47	=47	=47	=47
1r	.	1AM	.	guitar	.	91.066	A:maj
=48	=48	=48	=48	=48	=48	=48	=48
*>Letter>D	*>Letter>D	*>Letter>D	*>Letter>D	*>Letter>D	*>Letter>D	*>Letter>D	*>Letter>D
*>Label>Solo	*>Label>Solo	*>Label>Solo	*>Label>Solo	*>Label>Solo	*>Label>Solo	*>Label>Solo	*>Label>Solo
1r	.	1F#m	newline	guitar	.	93.069	F#:min
=49	=49	=49	=49	=49	=49	=49	=49
1r	.	1F#m	.	guitar	.	95.053	F#:min/b1
=50	=50	=50	=50	=50	=50	=50	=50
1r	.	1F#m	.	guitar	.	97.037	F#:min/b7
=51	=51	=51	=51	=51	=51	=51	=51
1r	.	2F#M	.	guitar	.	99.02	F#:maj6/6
.	.	2Bmm	.	guitar	.	100.012	B:sus2(b7)
=52	=52	=52	=52	=52	=52	=52	=52
1r	.	1Em	newline	guitar	.	101.004	E:min
=53	=53	=53	=53	=53	=53	=53	=53
1r	.	1AM	.	guitar	.	102.98	A:maj
=54	=54	=54	=54	=54	=54	=54	=54
1r	.	1Em	.	guitar	.	104.955	E:min
=55	=55	=55	=55	=55	=55	=55	=55
1r	.	1AM	.	guitar	.	106.931	A:maj
=56	=56	=56	=56	=56	=56	=56	=56
1r	.	1Em	.	guitar	.	108.906	E:min
=57	=57	=57	=57	=57	=57	=57	=57
1r	.	1AM	.	guitar	.	110.882	A:maj
=58	=58	=58	=58	=58	=58	=58	=58
*>Letter>B	*>Letter>B	*>Letter>B	*>Letter>B	*>Letter>B	*>Letter>B	*>Letter>B	*>Letter>B
*>Label>Verse	*>Label>Verse	*>Label>Verse	*>Label>Verse	*>Label>Verse	*>Label>Verse	*>Label>Verse	*>Label>Verse
8f#	Now	1DM	newline	voice	.	112.858	D:maj
4e	I	.	.	.	.	.	.
[8d	know	.	.	.	.	.	.
8d]	_	.	.	.	.	.	.
16e	the	.	.	.	.	.	.
[16f#	_	.	.	.	.	.	.
8f#]	_	.	.	.	.	.	.
[8e	se-	.	.	.	.	.	.
=59	=59	=59	=59	=59	=59	=59	=59
8e]	_	1Am	.	voice	.	114.825	A:min
4d	-cret	.	.	.	.	.	.
4c	there	.	.	.	.	.	.
4A	is	.	.	.	.	.	.
[8c	no-	.	.	.	.	.	.
=60	=60	=60	=60	=60	=60	=60	=60
8c]	_	2CM	.	voice	.	116.793	C:maj
4c	-thing	.	.	.	.	.	.
[8d	that	.	.	.	.	.	.
8d]	_	2GM	.	voice	.	117.777	G:maj
4e	I	.	.	.	.	.	.
[8d	lack	.	.	.	E	.	.
=61	=61	=61	=61	=61	=61	=61	=61
8d]	_	1DM	.	voice	.	118.761	D:maj
8r	.	.	.	.	.	.	.
4r	.	.	.	.	.	.	.
2r	.	.	.	.	.	.	.
=62	=62	=62	=62	=62	=62	=62	=62
8f#	If	1DM	newline	voice	.	120.729	D:maj
4e	I	.	.	.	.	.	.
[8d	give	.	.	.	.	.	.
8d]	_	.	.	.	.	.	.
16e	my	.	.	.	.	.	.
[16f#	_	.	.	.	.	.	.
8f#]	_	.	.	.	.	.	.
[8e	love	.	.	.	.	.	.
=63	=63	=63	=63	=63	=63	=63	=63
8e]	_	1Am	.	voice	.	122.716	A:min
4d	to	.	.	.	.	.	.
4c	you	.	.	.	.	.	.
8r	.	.	.	.	.	.	.
8r	.	.	.	.	.	.	.
8A	you'll	.	.	.	.	.	.
=64	=64	=64	=64	=64	=64	=64	=64
4c	sure-	2CM	.	voice	.	124.703	C:maj
8c	-ly	.	.	.	.	.	.
[8d	give	.	.	.	.	.	.
8d]	_	2GM	.	voice	.	125.696	G:maj
16d	it	.	.	.	.	.	.
[16e	_	.	.	.	.	.	.
8e]	_	.	.	.	.	.	.
[8d	back	.	.	.	E	.	.
=65	=65	=65	=65	=65	=65	=65	=65
8d]	_	1DM	.	voice	.	126.69	D:maj
8r	.	.	.	.	.	.	.
4r	.	.	.	.	.	.	.
8r	.	.	.	.	.	.	.
8d	Let	.	.	.	.	.	.
8e	it	.	.	.	.	.	.
[8f#	rain	.	.	.	.	.	.
=66	=66	=66	=66	=66	=66	=66	=66
*>Letter>C	*>Letter>C	*>Letter>C	*>Letter>C	*>Letter>C	*>Letter>C	*>Letter>C	*>Letter>C
*>Label>Chorus	*>Label>Chorus	*>Label>Chorus	*>Label>Chorus	*>Label>Chorus	*>Label>Chorus	*>Label>Chorus	*>Label>Chorus
8f#]	_	2DM	newline	voice	.	128.677	D:maj
8r	.	.	.	.	.	.	.
4r	.	.	.	.	.	.	.
8r	.	2Am	.	voice	.	129.653	A:min
8d	Let	.	.	.	.	.	.
8e	it	.	.	.	.	.	.
16f#	rain	.	.	.	.	.	.
16e	_	.	.	.	.	.	.
=67	=67	=67	=67	=67	=67	=67	=67
4d	_	2DM	.	voice	.	130.63	D:maj
4r	.	.	.	.	.	.	.
8r	.	2Am	.	voice	.	131.606	A:min
8d	Let	.	.	.	.	.	.
8d	your	.	.	.	.	.	.
[8e	love	.	.	.	.	.	.
=68	=68	=68	=68	=68	=68	=68	=68
4e]	_	2CM	.	voice	.	132.582	C:maj
16e	rain	.	.	.	.	.	.
16f#	_	.	.	.	.	.	.
8e	_	.	.	.	.	.	.
4d	down	2GM	.	voice	.	133.558	G:maj
8B	on	.	.	.	.	.	.
[8A	me	.	.	.	.	.	.
=69	=69	=69	=69	=69	=69	=69	=69
8A]	_	1DM	.	voice	.	134.534	D:maj
8r	.	.	.	.	.	.	.
4r	.	.	.	.	.	.	.
8r	.	.	.	.	.	.	.
8d	Let	.	.	.	.	.	.
8e	it	.	.	.	.	.	.
[8f#	rain	.	.	.	.	.	.
=70	=70	=70	=70	=70	=70	=70	=70
8f#]	_	2DM	newline	voice	.	136.487	D:maj
8r	.	.	.	.	.	.	.
4r	.	.	.	.	.	.	.
8r	.	2Am	.	voice	.	137.462	A:min
8d	Let	.	.	.	.	.	.
8e	it	.	.	.	.	.	.
16f#	rain	.	.	.	.	.	.
16e	_	.	.	.	.	.	.
=71	=71	=71	=71	=71	=71	=71	=71
4d	_	2DM	.	voice	.	138.437	D:maj
4r	.	.	.	.	.	.	.
8r	.	2Am	.	voice	.	139.412	A:min
8d	Let	.	.	.	.	.	.
8d	it	.	.	.	.	.	.
[8e	rain	.	.	.	.	.	.
=72	=72	=72	=72	=72	=72	=72	=72
4.e]	_	2CM	.	voice	.	140.387	C:maj
8d	_	.	.	.	.	.	.
4.d	rain	2GM	.	voice	.	141.362	G:maj
[8d	rain	.	.	.	.	.	.
=73	=73	=73	=73	=73	=73	=73	=73
8d]	_	1DM	.	voice	.	142.337	D:maj
4.r	.	.	.	.	.	.	.
8r	.	.	.	.	.	.	.
8d	Let	.	.	.	.	.	.
8e	it	.	.	.	.	.	.
[8f#	rain	.	.	.	.	.	.
=74	=74	=74	=74	=74	=74	=74	=74
*>Letter>C	*>Letter>C	*>Letter>C	*>Letter>C	*>Letter>C	*>Letter>C	*>Letter>C	*>Letter>C
*>Label>Chorus	*>Label>Chorus	*>Label>Chorus	*>Label>Chorus	*>Label>Chorus	*>Label>Chorus	*>Label>Chorus	*>Label>Chorus
8f#]	_	2DM	newline	voice	.	144.286	D:maj
8r	.	.	.	.	.	.	.
4r	.	.	.	.	.	.	.
8r	.	2Am	.	voice	.	145.259	A:min
8d	Let	.	.	.	.	.	.
8e	it	.	.	.	.	.	.
16f#	rain	.	.	.	.	.	.
16e	_	.	.	.	.	.	.
=75	=75	=75	=75	=75	=75	=75	=75
4d	_	2DM	.	voice	.	146.232	D:maj
4r	.	.	.	.	.	.	.
8r	.	2Am	.	voice	.	147.206	A:min
8d	Let	.	.	.	.	.	.
8d	your	.	.	.	.	.	.
[8e	love	.	.	.	.	.	.
=76	=76	=76	=76	=76	=76	=76	=76
4e]	_	2CM	.	voice	.	148.179	C:maj
16e	rain	.	.	.	.	.	.
16f#	_	.	.	.	.	.	.
8e	_	.	.	.	.	.	.
4d	down	2GM	.	voice	.	149.152	G:maj
8B	on	.	.	.	.	.	.
[8A	me	.	.	.	.	.	.
=77	=77	=77	=77	=77	=77	=77	=77
8A]	_	1DM	.	voice	.	150.125	D:maj
8r	.	.	.	.	.	.	.
4r	.	.	.	.	.	.	.
8r	.	.	.	.	.	.	.
8d	Let	.	.	.	.	.	.
8e	it	.	.	.	.	.	.
[8f#	rain	.	.	.	.	.	.
=78	=78	=78	=78	=78	=78	=78	=78
8f#]	_	2DM	newline	voice	.	152.071	D:maj
8r	.	.	.	.	.	.	.
4r	.	.	.	.	.	.	.
8r	.	2Am	.	voice	.	153.06	A:min
8d	Let	.	.	.	.	.	.
8e	it	.	.	.	.	.	.
16f#	rain	.	.	.	.	.	.
16e	_	.	.	.	.	.	.
=79	=79	=79	=79	=79	=79	=79	=79
4d	_	2DM	.	voice	.	154.049	D:maj
4r	.	.	.	.	.	.	.
8r	.	2Am	.	voice	.	155.038	A:min
8d	Let	.	.	.	.	.	.
8d	it	.	.	.	.	.	.
[8e	rain	.	.	.	.	.	.
=80	=80	=80	=80	=80	=80	=80	=80
2e]	_	2CM	.	voice	.	156.028	C:maj
2d	rain	2GM	.	voice	.	157.017	G:maj
=81	=81	=81	=81	=81	=81	=81	=81
*>Letter>A	*>Letter>A	*>Letter>A	*>Letter>A	*>Letter>A	*>Letter>A	*>Letter>A	*>Letter>A
*>Label>Interlude	*>Label>Interlude	*>Label>Interlude	*>Label>Interlude	*>Label>Interlude	*>Label>Interlude	*>Label>Interlude	*>Label>Interlude
1c#	rain	1AM	newline	guitar	.	158.006	A:maj
=82	=82	=82	=82	=82	=82	=82	=82
1r	.	1GM	.	guitar	.	160.025	G:maj/2
=83	=83	=83	=83	=83	=83	=83	=83
1r	.	1GM	.	guitar	.	162.044	G:maj/2
=84	=84	=84	=84	=84	=84	=84	=84
1r	.	1AM	.	guitar	.	164.062	A:maj
=85	=85	=85	=85	=85	=85	=85	=85
1r	.	1AM	newline	guitar	.	166.081	A:maj
=86	=86	=86	=86	=86	=86	=86	=86
1r	.	1GM	.	guitar	.	168.05	G:maj
=87	=87	=87	=87	=87	=87	=87	=87
1r	.	1GM	.	guitar	.	170.02	G:maj/3
=88	=88	=88	=88	=88	=88	=88	=88
1r	.	1AM	.	guitar	.	171.989	A:maj
=89	=89	=89	=89	=89	=89	=89	=89
*>Letter>A2	*>Letter>A2	*>Letter>A2	*>Letter>A2	*>Letter>A2	*>Letter>A2	*>Letter>A2	*>Letter>A2
*>Label>Outro	*>Label>Outro	*>Label>Outro	*>Label>Outro	*>Label>Outro	*>Label>Outro	*>Label>Outro	*>Label>Outro
1r	.	1AM	newline	guitar	.	173.958	A:maj
=90	=90	=90	=90	=90	=90	=90	=90
1r	.	1GM	.	guitar	.	175.89	G:maj
=91	=91	=91	=91	=91	=91	=91	=91
1r	.	1GM	.	guitar	.	177.822	G:maj
=92	=92	=92	=92	=92	=92	=92	=92
1r	.	1AM	.	guitar	.	179.754	A:maj
=93	=93	=93	=93	=93	=93	=93	=93
2..e	Hey	1AM	newline	guitar	.	181.686	A:maj
8d	_	.	.	.	.	.	.
=94	=94	=94	=94	=94	=94	=94	=94
1r	.	1GM	.	guitar	.	183.604	G:maj
=95	=95	=95	=95	=95	=95	=95	=95
[2f#	Hey	1GM	.	guitar	.	185.522	G:maj
8f#]	_	.	.	.	.	.	.
8g	_	.	.	.	.	.	.
8f#	_	.	.	.	.	.	.
8e	_	.	.	.	.	.	.
=96	=96	=96	=96	=96	=96	=96	=96
1r	.	1AM	.	guitar	.	187.44	A:maj
=97	=97	=97	=97	=97	=97	=97	=97
2..e	Hey	1AM	newline	guitar	.	189.359	A:maj
[8d	_	.	.	.	.	.	.
=98	=98	=98	=98	=98	=98	=98	=98
8d]	_	1GM	.	guitar	.	191.273	G:maj
8r	.	.	.	.	.	.	.
4r	.	.	.	.	.	.	.
2r	.	.	.	.	.	.	.
=99	=99	=99	=99	=99	=99	=99	=99
[2f#	Hey	1GM	.	guitar	.	193.187	G:maj
8f#]	_	.	.	.	.	.	.
8g	_	.	.	.	.	.	.
8f#	_	.	.	.	.	.	.
[8e	_	.	.	.	.	.	.
=100	=100	=100	=100	=100	=100	=100	=100
4e]	_	1AM	.	guitar	.	195.101	A:maj
4r	.	.	.	.	.	.	.
2r	.	.	.	.	.	.	.
=101	=101	=101	=101	=101	=101	=101	=101
2..e	Hey	1AM	newline	guitar	.	197.015	A:maj
[8d	_	.	.	.	.	.	.
=102	=102	=102	=102	=102	=102	=102	=102
8d]	_	1GM	.	guitar	.	198.939	G:maj
8r	.	.	.	.	.	.	.
4r	.	.	.	.	.	.	.
2r	.	.	.	.	.	.	.
=103	=103	=103	=103	=103	=103	=103	=103
[2f#	Hey	1GM	.	guitar	.	200.863	G:maj
8f#]	_	.	.	.	.	.	.
8g	_	.	.	.	.	.	.
8f#	_	.	.	.	.	.	.
[8e	_	.	.	.	.	.	.
=104	=104	=104	=104	=104	=104	=104	=104
8e]	_	1AM	.	guitar	.	202.787	A:maj
8r	.	.	.	.	.	.	.
4r	.	.	.	.	.	.	.
2r	.	.	.	.	.	.	.
=105	=105	=105	=105	=105	=105	=105	=105
2..e	Hey	1AM	newline	guitar	.	204.711	A:maj
8d	_	.	.	.	.	.	.
=106	=106	=106	=106	=106	=106	=106	=106
1r	.	1GM	.	guitar	.	206.643	G:maj
=107	=107	=107	=107	=107	=107	=107	=107
[2f#	Hey	1GM	.	guitar	.	208.576	G:maj
8f#]	_	.	.	.	.	.	.
8g	_	.	.	.	.	.	.
8f#	_	.	.	.	.	.	.
[8e	_	.	.	.	.	.	.
=108	=108	=108	=108	=108	=108	=108	=108
8e]	_	1AM	.	guitar	.	210.508	A:maj
8r	.	.	.	.	.	.	.
4r	.	.	.	.	.	.	.
2r	.	.	.	.	.	.	.
=109	=109	=109	=109	=109	=109	=109	=109
1r	.	1AM	newline	guitar	.	212.441	A:maj
=110	=110	=110	=110	=110	=110	=110	=110
1r	.	1GM	.	guitar	.	214.357	G:maj
=111	=111	=111	=111	=111	=111	=111	=111
1r	.	1GM	.	guitar	.	216.274	G:maj
=112	=112	=112	=112	=112	=112	=112	=112
1r	.	1AM	.	guitar	.	218.19	A:maj
=113	=113	=113	=113	=113	=113	=113	=113
1r	.	1AM	newline	guitar	.	220.106	A:maj
=114	=114	=114	=114	=114	=114	=114	=114
1r	.	1GM	.	guitar	.	222.016	G:maj
=115	=115	=115	=115	=115	=115	=115	=115
1r	.	1GM	.	guitar	.	223.926	G:maj
=116	=116	=116	=116	=116	=116	=116	=116
1r	.	1AM	.	guitar	.	225.836	A:maj
=117	=117	=117	=117	=117	=117	=117	=117
1r	.	1AM	newline	guitar	.	227.745	A:maj
=118	=118	=118	=118	=118	=118	=118	=118
1r	.	1GM	.	guitar	.	229.632	G:maj
=119	=119	=119	=119	=119	=119	=119	=119
1r	.	1GM	.	guitar	.	231.518	G:maj
=120	=120	=120	=120	=120	=120	=120	=120
1r	.	1AM	.	guitar	.	233.404	A:maj
=121	=121	=121	=121	=121	=121	=121	=121
1r	.	1AM	newline	guitar	.	235.29	A:maj
=122	=122	=122	=122	=122	=122	=122	=122
1r	.	1GM	.	guitar	.	237.193	G:maj
=123	=123	=123	=123	=123	=123	=123	=123
1r	.	1GM	.	guitar	.	239.095	G:maj
=124	=124	=124	=124	=124	=124	=124	=124
1r	.	1AM	.	guitar	.	240.997	A:maj
=125	=125	=125	=125	=125	=125	=125	=125
1r	.	1AM	newline	guitar	.	242.899	A:maj
=126	=126	=126	=126	=126	=126	=126	=126
1r	.	1GM	.	guitar	.	244.809	G:maj
=127	=127	=127	=127	=127	=127	=127	=127
1r	.	1GM	.	guitar	.	246.719	G:maj
=128	=128	=128	=128	=128	=128	=128	=128
1r	.	1AM	.	guitar	.	248.628	A:maj
=129	=129	=129	=129	=129	=129	=129	=129
1r	.	1AM	newline	guitar	.	250.538	A:maj
=130	=130	=130	=130	=130	=130	=130	=130
1r	.	1GM	.	guitar	.	252.419	G:maj
=131	=131	=131	=131	=131	=131	=131	=131
1r	.	1GM	.	guitar	.	254.301	G:maj
=132	=132	=132	=132	=132	=132	=132	=132
1r	.	1AM	.	guitar	.	256.182	A:maj
=133	=133	=133	=133	=133	=133	=133	=133
1r	.	1AM	newline	guitar	.	258.063	A:maj
=134	=134	=134	=134	=134	=134	=134	=134
1r	.	1GM	.	guitar	.	259.942	G:maj
=135	=135	=135	=135	=135	=135	=135	=135
1r	.	1GM	.	guitar	.	261.82	G:maj
=136	=136	=136	=136	=136	=136	=136	=136
1r	.	1AM	.	guitar	.	263.699	A:maj
=137	=137	=137	=137	=137	=137	=137	=137
1r	.	1AM	newline	guitar	.	265.577	A:maj
=138	=138	=138	=138	=138	=138	=138	=138
1r	.	1GM	.	guitar	.	267.452	G:maj
=139	=139	=139	=139	=139	=139	=139	=139
1r	.	1GM	.	guitar	.	269.327	G:maj
=140	=140	=140	=140	=140	=140	=140	=140
1r	.	1AM	.	guitar	.	271.202	A:maj
=141	=141	=141	=141	=141	=141	=141	=141
1r	.	1AM	newline	guitar	.	273.078	A:maj
=142	=142	=142	=142	=142	=142	=142	=142
1r	.	1GM	.	guitar	.	274.973	G:maj
=143	=143	=143	=143	=143	=143	=143	=143
1r	.	1GM	.	guitar	.	276.868	G:maj
=144	=144	=144	=144	=144	=144	=144	=144
1r	.	1AM	.	guitar	.	278.763	A:maj
=145	=145	=145	=145	=145	=145	=145	=145
1r	.	1AM	newline	guitar	.	280.658	A:maj
=146	=146	=146	=146	=146	=146	=146	=146
1r	.	1GM	.	guitar	.	282.551	G:maj
=147	=147	=147	=147	=147	=147	=147	=147
1r	.	1GM	.	guitar	.	284.445	G:maj
=148	=148	=148	=148	=148	=148	=148	=148
1r	.	1AM	.	guitar	.	286.338	A:maj
=149	=149	=149	=149	=149	=149	=149	=149
1r	.	1AM	newline	guitar	.	288.232	A:maj
=150	=150	=150	=150	=150	=150	=150	=150
1r	.	1GM	.	guitar	.	290.332	G:maj
=151	=151	=151	=151	=151	=151	=151	=151
1r	.	1GM	.	guitar	.	292.433	G:maj
=152	=152	=152	=152	=152	=152	=152	=152
1r	.	1AM	.	guitar	.	294.534	A:maj
=153	=153	=153	=153	=153	=153	=153	=153
1r	.	1AM	newline	guitar	.	296.635	A:maj
r;	.	1r;	.	r	.	300.304	N.C.
r;	.	1r;	.	r	.	302.158	N.C.
*-	*-	*-	*-	*-	*-	*-	*-
!!!BillboardChartDate: 1972/12/02
!!!BillboardPeak: 48
!!!BillboardWeeksOnChart: 13
!!!COC: Eric Clapton
!!!ENC: Nathaniel Condit-Schultz
!!!EST: Awating manual error checking and editing.
!!!OTL: Let It Rain
!!!RDF**chordsym: original McGill chord annotation + (implied pitch class set, with bass pitch in first position)
!!!RDF**harmony: **recip + pitch class of root + harmonic quality
!!!RDF**leadinstrument: original McGill primary instrumentation annotation
!!!RDF**phrase: newline = linebreak in original McGill transcription
!!!RDF**timestamp: McGill audio timestamp in seconds
!!!RDT: 2017/01/12/
!!!SampleActualRank: 48
!!!SampleID#: 0116
!!!SampleTargetRank: 48
